img/icon-toy.svg

<svg width="60" height="60" viewBox="0 0 60 60" fill="none" xmlns="http://www.w3.org/2000/svg">
<path  d="M0 43.9933L27.4 60V36.5436L0 20.4362V43.9933ZM51.3 12.4832V15C51.3 16.8121 47.8 18.3221 43.6 18.3221C39.3 18.3221 35.9 16.8121 35.9 15V10.8725C36.2 12.5839 39.5 13.9933 43.6 13.9933C47.9 13.9933 51.3 12.4832 51.3 10.6711C51.3 8.85907 47.8 7.349 43.6 7.349C43.3 7.349 42.9 7.349 42.6 7.349L37.6 4.42954V7.55034C37.6 9.36242 34.1 10.8725 29.9 10.8725C27.2 10.8725 24.9 10.2685 23.5 9.36242C23.3 9.16108 23.1 8.95973 22.8 8.75839C22.4 8.3557 22.2 7.95302 22.2 7.55034V4.5302L17.4 7.349C17.1 7.349 16.7 7.349 16.3 7.349C12 7.349 8.60001 8.85907 8.60001 10.6711C8.60001 12.4832 12.1 13.9933 16.3 13.9933C20.4 13.9933 23.7 12.5839 24 10.8725V15C24 16.8121 20.5 18.3221 16.3 18.3221C12 18.3221 8.60001 16.8121 8.60001 15V12.5839L2.60001 16.1074L30.1 32.2148L57.5 16.2081L51.3 12.4832ZM37.7 22.7517C37.7 24.5638 34.2 26.0738 30 26.0738C25.7 26.0738 22.3 24.5638 22.3 22.7517V18.6242C22.6 20.3356 25.9 21.745 30 21.745C34.1 21.745 37.4 20.3356 37.7 18.6242V22.7517ZM32.6 36.745V60L60 43.9933V20.7383L32.6 36.745ZM29.9 6.6443C34.2 6.6443 37.6 5.13423 37.6 3.32215C37.6 1.51007 34.1 0 29.9 0C25.6 0 22.2 1.51007 22.2 3.32215C22.2 5.13423 25.6 6.6443 29.9 6.6443Z" fill="#149080"/>
</svg>

<svg width="60" height="60" fill="none" xmlns="http://www.w3.org/2000/svg"><path d="M0 43.993L27.4 60V36.544L0 20.436v23.557zm51.3-31.51V15c0 1.812-3.5 3.322-7.7 3.322-4.3 0-7.7-1.51-7.7-3.322v-4.127c.3 1.71 3.6 3.12 7.7 3.12 4.3 0 7.7-1.51 7.7-3.322S47.8 7.35 43.6 7.35h-1l-5-2.92v3.12c0 1.812-3.5 3.323-7.7 3.323-2.7 0-5-.604-6.4-1.51a4.36 4.36 0 00-.7-.605c-.4-.402-.6-.805-.6-1.208V4.53l-4.8 2.82h-1.1c-4.3 0-7.7 1.51-7.7 3.322s3.5 3.322 7.7 3.322c4.1 0 7.4-1.41 7.7-3.12V15c0 1.812-3.5 3.322-7.7 3.322-4.3 0-7.7-1.51-7.7-3.322v-2.416l-6 3.523 27.5 16.108 27.4-16.007-6.2-3.725zM37.7 22.752c0 1.812-3.5 3.322-7.7 3.322-4.3 0-7.7-1.51-7.7-3.322v-4.128c.3 1.712 3.6 3.121 7.7 3.121s7.4-1.41 7.7-3.12v4.127zm-5.1 13.993V60L60 43.993V20.738L32.6 36.745zm-2.7-30.1c4.3 0 7.7-1.51 7.7-3.323C37.6 1.51 34.1 0 29.9 0c-4.3 0-7.7 1.51-7.7 3.322s3.4 3.322 7.7 3.322z" fill="#149080"/></svg>
